public/logo.svg

<svg width="48" height="48" viewBox="0 0 48 48" fill="none" xmlns="http://www.w3.org/2000/svg">
<circle cx="24" cy="24" r="24" fill="white"/>
<path d="M15.6001 15.125C15.5679 15.162 15.5361 15.1994 15.5048 15.2373C13.7245 17.3936 15.3615 20.1651 17.8293 21.4801C18.1662 21.6596 18.5245 21.8675 18.9082 22.1252C20.9082 23.4682 21.8379 22.1955 22.4079 21.6255C22.9079 21.1255 23 20.125 22.9084 19.625C22.8182 19.1332 22.0399 16.625 20.7335 15.125C19.4271 13.625 16.9084 13.625 15.6001 15.125Z" fill="#00A29A"/>
<path d="M34.2363 15.1245C33.0363 13.9245 30.7871 14.018 29.7363 14.6249C28.6855 15.2317 27.8659 16.3006 26.7363 19.1245C23.7364 26.6244 21.5 27.1245 19.2363 28.1245C17.5873 28.853 15.7364 28.6248 14.7364 29.6248C13.9458 30.4153 13.2364 32.6248 15.7365 34.1248C19.9592 36.6583 26.7362 28.1248 30.7363 24.1248C34.2363 20.6248 33.7367 21.6249 34.7367 20.1249C35.7367 18.6249 35.7363 16.6245 34.2363 15.1245Z" fill="#00A29A"/>
</svg>

<svg xmlns="http://www.w3.org/2000/svg" width="48" height="48" fill="none" viewBox="0 0 48 48"><circle cx="24" cy="24" r="24" fill="#fff"/><path fill="#00a29a" d="m15.6 15.125-.095.112c-1.78 2.157-.144 4.928 2.324 6.243.337.18.695.387 1.08.645 2 1.343 2.929.07 3.499-.5.5-.5.592-1.5.5-2-.09-.492-.868-3-2.175-4.5s-3.825-1.5-5.133 0"/><path fill="#00a29a" d="M34.236 15.125c-1.2-1.2-3.449-1.107-4.5-.5-1.05.607-1.87 1.676-3 4.5-3 7.5-5.236 8-7.5 9-1.649.728-3.5.5-4.5 1.5-.79.79-1.5 3 1 4.5 4.223 2.533 11-6 15-10 3.5-3.5 3-2.5 4-4s1-3.5-.5-5"/></svg>
